dist/svg/static/calendar-events-small.svg

<svg xmlns="http://www.w3.org/2000/svg" width="24" height="24" viewBox="0 0 24 24"><path d="M5.5 19.493V22.5a1.001 1.001 0 0 0 .997 1h15.006a1.001 1.001 0 0 0 .997-1V6" fill="none" stroke="currentColor" stroke-miterlimit="10"/><path d="M.5 3v15.52a.99.99 0 0 0 .993.98H13.5l5-5V3" fill="none" stroke="currentColor" stroke-linejoin="round"/><path fill="none" stroke="currentColor" stroke-miterlimit="10" d="M18.5 14.5h-5v5M0 .5h18.997"/><path d="M4.018 5.91l2.062-.496h.603v5.762h1.755v.756H4v-.756h1.756V6.287l-1.738.387v-.765zm5.642 5.778v-.792a7.967 7.967 0 0 0 2.269.351c1.449 0 2.043-.468 2.043-1.161 0-1.206-2.746-1.36-4.051-1.377l.162-3.295h4.537v.756h-3.7l-.09 1.782c1.935.1 4.123.531 4.123 2.107 0 1.134-.918 1.98-3.043 1.98a6.662 6.662 0 0 1-2.25-.35z" fill="currentColor"/></svg>

<?xml version="1.0" encoding="UTF-8" standalone="no"?>
<svg width="24px" height="24px" viewBox="0 0 24 24" version="1.1" xmlns="http://www.w3.org/2000/svg" xmlns:xlink="http://www.w3.org/1999/xlink">
    <!-- Generator: sketchtool 46.2 (44496) - http://www.bohemiancoding.com/sketch -->
    <title>calendar-events-small</title>
    <desc>Created with sketchtool.</desc>
    <defs></defs>
    <g id="icons-published" stroke="none" stroke-width="1" fill="none" fill-rule="evenodd">
        <g id="briefing" transform="translate(-644.000000, -282.000000)"></g>
        <g id="calendar-events-small">
            <path d="M5.5,19.5 L5.5,22.5 C5.5,23.1 5.9,23.5 6.5,23.5 L21.5,23.5 C22.1,23.5 22.5,23.1 22.5,22.5 L22.5,6" id="Shape" stroke="#000000"></path>
            <path d="M0.5,3 L0.5,18.5 C0.5,19 0.9,19.5 1.5,19.5 L13.5,19.5 L18.5,14.5 L18.5,3" id="Shape" stroke="#000000" stroke-linejoin="round"></path>
            <path d="M18.5,14.5 L13.5,14.5 L13.5,19.5 M0,0.5 L19,0.5" id="Shape" stroke="#000000"></path>
            <path d="M4,5.9 L6.1,5.4 L6.7,5.4 L6.7,11.2 L8.5,11.2 L8.5,12 L4,12 L4,11.2 L5.8,11.2 L5.8,6.3 L4,6.7 L4,5.9 L4,5.9 Z M9.7,11.7 L9.7,10.9 C10.4,11.1 11.2,11.2 12,11.3 C13.4,11.3 14,10.8 14,10.1 C14,8.9 11.3,8.7 9.9,8.7 L10.1,5.4 L14.6,5.4 L14.6,6.2 L10.9,6.2 L10.8,8 C12.7,8.1 14.9,8.5 14.9,10.1 C14.9,11.2 14,12.1 11.9,12.1 C11.1,12.1 10.4,11.9 9.7,11.7 L9.7,11.7 Z" id="Shape" fill="#000000" fill-rule="nonzero"></path>
        </g>
    </g>
</svg>
